src/app/assets/logo/name_header.svg

<svg width="202" height="46" viewBox="0 0 202 46" fill="none" xmlns="http://www.w3.org/2000/svg">
<path d="M13.8568 31.65C14.5068 31.65 15.2068 31.55 15.6068 31.4V35.85C14.7568 36.1 13.4568 36.3 12.4068 36.3C7.05684 36.3 4.70684 34.05 4.70684 28.5V14.95H0.456836V10.6H4.70684V4.25H10.4068V10.6H15.3568V14.95H10.4068V27.65C10.4068 30.5 11.3568 31.65 13.8568 31.65ZM25.3002 13.6H25.4002C27.2002 11.15 29.8502 10 32.7002 10C38.4502 10 41.9502 13.5 41.9502 20.45V36H36.2502V20.95C36.2502 16.4 34.3002 14.6 31.1002 14.6C27.8502 14.6 25.3002 17.05 25.3002 21.9V36H19.6002V0.399999H25.3002V13.6ZM58.5447 32.55C61.7947 32.55 63.8947 30.8 64.3947 28.35H70.2447C69.2947 32.9 65.1947 36.75 58.5447 36.75C50.7947 36.75 46.2447 31.2 46.2447 23C46.2447 15.5 50.7447 9.85 58.4447 9.85C64.2447 9.85 68.4447 13.2 69.8447 18.5C70.3447 20.1 70.5447 22 70.5447 24.45H51.8947C52.0947 30.2 54.9947 32.55 58.5447 32.55ZM58.4447 14.05C54.9947 14.05 52.4947 16.3 51.9947 20.7H64.8447C64.4447 16.25 61.8447 14.05 58.4447 14.05ZM98.7943 9.95C105.244 9.95 109.394 15.2 109.394 23.3C109.394 31.4 105.294 36.6 98.8443 36.6C95.6943 36.6 92.8443 35.15 91.3943 32.7H91.2943V45.25H85.5943V10.6H91.1443V14.1H91.2443C92.7443 11.5 95.5943 9.95 98.7943 9.95ZM97.1443 14.4C93.4443 14.4 90.9943 17.75 90.9943 23.3C90.9943 28.8 93.4443 32.2 97.1443 32.2C100.994 32.2 103.444 28.7 103.444 23.3C103.444 17.9 100.994 14.4 97.1443 14.4ZM119.64 36H113.94V0.399999H119.64V36ZM135.428 9.85C142.128 9.85 145.878 13.15 145.878 19.8V29.3C145.878 32.3 146.128 34.4 146.528 36H141.378C141.128 34.9 141.028 33.65 141.028 32.45H140.928C139.078 35.15 136.228 36.55 132.378 36.55C127.078 36.55 123.778 33.35 123.778 29C123.778 24.85 126.228 22.15 133.528 21C135.578 20.65 138.578 20.35 140.378 20.25V19.25C140.378 15.5 138.328 14 135.428 14C132.278 14 130.578 15.75 130.428 18.45H124.828C125.078 13.65 128.578 9.85 135.428 9.85ZM140.378 25.2V23.95C138.678 24.05 136.228 24.3 134.528 24.6C130.878 25.2 129.528 26.3 129.528 28.6C129.528 30.85 131.128 32.35 134.028 32.35C135.778 32.35 137.478 31.8 138.628 30.65C139.978 29.25 140.378 27.9 140.378 25.2ZM162.481 9.85C168.981 9.85 173.431 14 173.931 19.8H167.981C167.731 16.5 165.581 14.35 162.481 14.35C158.481 14.35 156.131 17.75 156.131 23.3C156.131 28.85 158.481 32.25 162.481 32.25C165.581 32.25 167.681 29.8 167.931 26.35H173.931C173.431 32.5 169.031 36.75 162.481 36.75C154.981 36.75 150.131 31.55 150.131 23.3C150.131 15.05 154.981 9.85 162.481 9.85ZM189.117 32.55C192.367 32.55 194.467 30.8 194.967 28.35H200.817C199.867 32.9 195.767 36.75 189.117 36.75C181.367 36.75 176.817 31.2 176.817 23C176.817 15.5 181.317 9.85 189.017 9.85C194.817 9.85 199.017 13.2 200.417 18.5C200.917 20.1 201.117 22 201.117 24.45H182.467C182.667 30.2 185.567 32.55 189.117 32.55ZM189.017 14.05C185.567 14.05 183.067 16.3 182.567 20.7H195.417C195.017 16.25 192.417 14.05 189.017 14.05Z" fill="#FFD95D"/>
</svg>

<?xml version="1.0" encoding="utf-8"?>
<!-- Generator: Adobe Illustrator 28.2.0, SVG Export Plug-In . SVG Version: 6.00 Build 0)  -->
<svg version="1.1" id="Capa_1" xmlns="http://www.w3.org/2000/svg" xmlns:xlink="http://www.w3.org/1999/xlink" x="0px" y="0px"
	 viewBox="0 0 202 46" style="enable-background:new 0 0 202 46;" xml:space="preserve">
<style type="text/css">
	.st0{fill:#FFCA22;}
</style>
<path class="st0" d="M13.9,31.6c0.6,0,1.4-0.1,1.8-0.2v4.4c-0.9,0.2-2.1,0.5-3.2,0.5c-5.3,0-7.7-2.2-7.7-7.8V14.9H0.5v-4.3h4.3V4.2
	h5.7v6.4h4.9v4.3h-4.9v12.7C10.4,30.5,11.4,31.6,13.9,31.6z M25.3,13.6h0.1c1.8-2.5,4.5-3.6,7.3-3.6c5.8,0,9.2,3.5,9.2,10.5V36h-5.7
	V21c0-4.6-1.9-6.4-5.1-6.4c-3.2,0-5.8,2.4-5.8,7.3V36h-5.7V0.4h5.7V13.6z M58.5,32.5c3.2,0,5.3-1.8,5.8-4.2h5.8
	c-0.9,4.6-5,8.4-11.7,8.4c-7.8,0-12.3-5.5-12.3-13.8c0-7.5,4.5-13.1,12.2-13.1c5.8,0,10,3.3,11.4,8.6c0.5,1.6,0.7,3.5,0.7,6H51.9
	C52.1,30.2,55,32.5,58.5,32.5z M58.4,14.1c-3.4,0-5.9,2.2-6.4,6.7h12.9C64.4,16.2,61.8,14.1,58.4,14.1z M98.8,9.9
	c6.4,0,10.6,5.2,10.6,13.3s-4.1,13.3-10.5,13.3c-3.2,0-6-1.4-7.4-3.9h-0.1v12.5h-5.7V10.6h5.6v3.5h0.1C92.7,11.5,95.6,9.9,98.8,9.9z
	 M97.1,14.4c-3.7,0-6.2,3.4-6.2,8.9c0,5.5,2.4,8.9,6.2,8.9c3.8,0,6.3-3.5,6.3-8.9S101,14.4,97.1,14.4z M119.6,36h-5.7V0.4h5.7V36z
	 M135.4,9.9c6.7,0,10.5,3.3,10.5,9.9v9.5c0,3,0.2,5.1,0.6,6.7h-5.1c-0.2-1.1-0.4-2.3-0.4-3.5h-0.1c-1.8,2.7-4.7,4.1-8.5,4.1
	c-5.3,0-8.6-3.2-8.6-7.5c0-4.1,2.4-6.9,9.8-8c2.1-0.4,5.1-0.6,6.9-0.8v-1c0-3.8-2.1-5.2-5-5.2c-3.1,0-4.8,1.8-5,4.5h-5.6
	C125.1,13.6,128.6,9.9,135.4,9.9z M140.4,25.2V24c-1.7,0.1-4.2,0.3-5.9,0.6c-3.6,0.6-5,1.7-5,4c0,2.2,1.6,3.7,4.5,3.7
	c1.8,0,3.4-0.5,4.6-1.7C140,29.2,140.4,27.9,140.4,25.2z M162.5,9.9c6.5,0,10.9,4.1,11.4,9.9H168c-0.2-3.3-2.4-5.4-5.5-5.4
	c-4,0-6.4,3.4-6.4,8.9s2.4,9,6.4,9c3.1,0,5.2-2.5,5.4-5.9h6c-0.5,6.1-4.9,10.4-11.4,10.4c-7.5,0-12.4-5.2-12.4-13.5
	S155,9.9,162.5,9.9z M189.1,32.5c3.2,0,5.3-1.8,5.8-4.2h5.9c-0.9,4.6-5.1,8.4-11.7,8.4c-7.8,0-12.3-5.5-12.3-13.8
	c0-7.5,4.5-13.1,12.2-13.1c5.8,0,10,3.3,11.4,8.6c0.5,1.6,0.7,3.5,0.7,6h-18.7C182.7,30.2,185.6,32.5,189.1,32.5z M189,14.1
	c-3.4,0-5.9,2.2-6.4,6.7h12.9C195,16.2,192.4,14.1,189,14.1z"/>
</svg>
